svgs/solid/circle-t.svg

<svg xmlns="http://www.w3.org/2000/svg" viewBox="0 0 512 512"><!--! Font Awesome Pro 6.1.2 by @fontawesome - https://fontawesome.com License - https://fontawesome.com/license (Commercial License) Copyright 2022 Fonticons, Inc. --><path d="M256 0C114.6 0 0 114.6 0 256s114.6 256 256 256s256-114.6 256-256S397.4 0 256 0zM360 192h-80v168c0 13.25-10.75 24-24 24s-24-10.75-24-24V192h-80C138.8 192 128 181.3 128 168S138.8 144 152 144h208C373.3 144 384 154.8 384 168S373.3 192 360 192z"/></svg>

<svg xmlns="http://www.w3.org/2000/svg" viewBox="0 0 512 512"><!--! Font Awesome Pro 6.2.0 by @fontawesome - https://fontawesome.com License - https://fontawesome.com/license (Commercial License) Copyright 2022 Fonticons, Inc. --><path d="M256 512c141.4 0 256-114.6 256-256S397.4 0 256 0S0 114.6 0 256S114.6 512 256 512zM152 144H256 360c13.3 0 24 10.7 24 24s-10.7 24-24 24H280V360c0 13.3-10.7 24-24 24s-24-10.7-24-24V192H152c-13.3 0-24-10.7-24-24s10.7-24 24-24z"/></svg>
